X:13885
T:Rafferty's
R:Reel
S:
H:
N:
D:
Z:Adrian Scahill
M:4/4
L:1/8
K:G 
DGGA Bbag|egdc AGGF|DGGA (3BcB AG|1 AdcA G3F:|2 AdcA G3e||\
fgag fdde|fafd cAA2|fgag fdd^c|dgfa g3a|\
b2ag gfde|fafd cAGF|DGGA (3BcB AG|AdcA G3F||


